X:63
T:Prime's Hornpipe
B:Joyce, P. W.; "Old Irish Folk Music and Songs"
R:hornpipe
L:1/8
M:C
K:G
dc|BdGG G2 AG|FADD D2 dc|BdGG G2 Bd|egfa gedc|
BdGG G2 AG|FADD D2 dc|BcdB ecAF|G2 GG G2::ga|
b2 ba bgeg|abaf gfed|defg abag|f2 dd d2 ga|
b2 ba bgeg|abaf gfed|egfa gedc|B2 GG G2::Bc|
dBBA GB B2|dBBA GB B2|cAAG FA A2|cAAG FA A2|
dBBG eccA|egfa gfga|b>gaf gedc|B2 GG G2:|
